X:1
T:CANT DEL BOIER
T:Chanson traditionnelle du Languedoc                                        Harmonisation : Jean-Paul Finck 
%%score 1 2 3 4
L:1/8
M:9/8
K:G
V:1 treble-8 nm="Ténor 1" snm="T.1"
V:2 treble-8 nm="Ténor 2" snm="T.2"
V:3 bass nm="Basse 1" snm="B.1"
V:4 bass nm="Basse 2" snm="B.2"
V:1
 A | A2 e (ed)c d2 e |[M:6/8] e6- |[M:9/8] e8- e- |[M:6/8] e6 | ABc d2 e |[M:9/8] (c>dc) B6 | %7
w: 1.Quand|lo bo- ier _ ven de lau-|rar,|_ _||Plan- ta son a- gul-|ha _ _ da,|
w: |||||||
[M:6/8] A3 c3 |[M:9/8] B2 A B6 |[M:6/8] ABc d2 e | (c3 BcB) | A3- A2 | z |[M:9/8] (e6 c3 | %14
w: A E|I O U|Plan- ta son a- gul-|ha _ _ _|da. _||Oh _|
w: |||||||
 B6- B2) z | (e6 c3 | B8- B- |[M:6/8] B6) || z6 | z6 | z6 | e3 e3 |[M:9/8] d2 c B6 |[M:6/8] z6 | %24
w: _ _|Oh _|_ _|||||A E|I O U||
w: ||||||||||
 ABc d3 | !fermata!c6 |: A |[M:9/8] A2 e (ed)c d2 e |[M:6/8] e3- e2 A |[M:9/8] A2 e (ed)c d2 e | %30
w: des- con- so- la-|da.|3.Se|sias ma- lau _ ta di- ga-|bo, _ Se|sias ma- la _ ta di- ga-|
w: ||4.Amb|u- na ra- ba amb un cau-|let, _ Amb|u- na ra- ba amb un cau-|
[M:6/8] e6 || ABc d2 e |[M:9/8] (c>dc) B6 ||[M:6/8] e6- |[M:9/8] e3- e6 ||[M:6/8] e6- | e6- | %37
w: bo:|te fa- rai un po-|ta _ _ tge!|A|_ _|A|_|
w: let,|u- na lau- se- ta|ma _ _ gra!|||||
 e3- e2 :: B |[M:9/8] B2 e edc d2 e |[M:3/8] e3- |[M:9/8] e8- e- | e6 z2 :| z |[M:7/8] z7 | %45
w: |5.Quand|se- rai mor- ta en- ter- ratz|me|_ _||||
w: |6.Los|pes vi- ri- rats a la pa-|ret|_ _||||
[M:9/8] z2 c B2 c d2 d |[M:6/8] (c3 cBA) | c3- c2 z |[M:7/8] z7 | z de ff e2- | %50
w: 7.Pren- dran d'ai- ga sen-|ha _ _ _|da _||8.Qual es mor- ta ai-|
w: |||||
[M:9/8] e2 e e2 e e2 e |[M:6/8] (e6 | !fermata!d6) |[K:C][M:2/4] z d df | f2 ed | e2 fe- | e4- | %57
w: ci, a- quo's la pau- ra|Joa-|na!|9.Se n'es a-|na- da- al|Pa- ra- dis,|_|
w: |||||||
 e4 | z d df | f2 ed | e2 fe- |[M:7/8] e2- e3- e2- |[M:2/4] e4 ||[M:8/8]"^Plus lent" (efg)(fgf)ed | %64
w: |se nes a-|na- da al|Pa- ra- dis|_ _ _||A _ _ E _ _ I O|
w: |||||||
[M:6/8] !fermata!e6 ||"^ADAGIO molto" z3 def | g2 g g3 | !fermata!a6 |] %68
w: U!|Al cèl am-|be sas cra-|bas!|
w: ||||
V:2
 z | z9 |[M:6/8] z3 z2 B |[M:9/8] A2 B (cd)c B2 A |[M:6/8] B6 | z2 A (BA)G |[M:9/8] F2 A A2 G- G3 | %7
w: ||1.Quand|lo bo- ier _ ven de lau-|rar,|Plan- ta _ son|a- gul- ha- da _|
w: |||||||
[M:6/8] A3 A3 |[M:9/8] G2 A A3 G3 |[M:6/8] A3- AAB | A2 A (GAB) | A3- A2 | z |[M:9/8] (c6 A3- | %14
w: A E|I O U *|Plan _ ta son|a- gul- ha _ _|da. _||Oh _|
w: |||||||
 A6- A2) z | (c6 A3- | A8- A- |[M:6/8] A6) || z6 | z6 | z6 | B3 B3 |[M:9/8] A2 G F6 |[M:6/8] z6 | %24
w: _ _|Oh _|_ _|||||A E|I O U||
w: ||||||||||
 (A6 | !fermata!E6) |: A |[M:9/8] A2 e (ed)c B2 B |[M:6/8] B3- B2 A |[M:9/8] A2 e edc B2 B | %30
w: Oh|_|3.Se|sias ma- lau _ ta di- ga-|bo, _ Se|sias ma- la _ ta di- ga-|
w: ||4.Amb|u- na ra- ba amb un cau-|let, _ Amb|u- na ra- ba amb un cau-|
[M:6/8] A6 || EFG A2 B |[M:9/8] A3 G6 ||[M:6/8] A3 B3 |[M:9/8] c2 c B6 ||[M:6/8] ABc d2 e | %36
w: bo:|te fa- rai un po-|ta- tge!|A E|I O U|Te fa- rai un po-|
w: let,|u- na lau- se- ta|ma- gra!|||U- na lau- se- ta|
 (c3 BcB) | A3- A2 :: F |[M:9/8] F2 B BAG A2 B |[M:3/8] B3- |[M:9/8] B8- B- | B6 z2 :| c | %44
w: ta _ _ _|tge. _|5.Quand|se- rai mor- ta en- ter- ratz|me|_ _||7.Los|
w: ma _ _ _|gra. _|6.Los|pes vi- ri- rats a la pa-|ret|_ _|||
[M:7/8] ce(e d)c de |[M:9/8] A6- A3- |[M:6/8] A6- | A3- A2 z |[M:7/8] cee dc de | A3- A4- | %50
w: pe- le- grins _ que pa- sa-|ran _|_||8.E di- ran qual es mor- ta.i-|ci _|
w: ||||||
[M:9/8] A2 c B2 c d2 d |[M:6/8] (c3 BcB | !fermata!A6) |[K:C][M:2/4] z d dd | d2 dd | d2 dd- | %56
w: _ a- quo's la pau- ra|Joa _ _ _|na!|9.Se n'es a-|na- da- al|Pa- ra- dis,|
w: ||||||
 d4- | d4 | z d dd | d2 dd | d2 dB- |[M:7/8] B2- B3- B2- |[M:2/4] B4 ||[M:8/8] c3 c3 cc | %64
w: _||se nes a-|na- da al|Pa- ra- dis|_ _ _||A E I O|
w: ||||||||
[M:6/8] !fermata!B6 || ABc d2 d | d6 | !fermata!e6 |] %68
w: U!|Al cèl am- be sas|cra-|bas!|
w: ||||
V:3
 z | z9 |[M:6/8] F,3 G,3 |[M:9/8] F,3 A,2 A, F,2 E, |[M:6/8] F,6 | A,G,E, A,2 A, | %6
w: ||1.Quand lo|bo- ier ven de lau-|rar,|Plan- ta son a- gul-|
w: ||||||
[M:9/8] (A,2 E,) E,6 |[M:6/8] E,3 E,3 |[M:9/8] E,2 E, E,6 |[M:6/8] z3 F,E,F, | G,2 E, (E,F,G,) | %11
w: ha _ da,|A E|I O U|Plan- ta son|a- gul- ha _ _|
w: |||||
 A,3- A,2 | z |[M:9/8] z6 z2 E, | E,2 B, B,A,G, A,2 B, | F,6 z2 E, | E,2 B, B,A,G, A,2 B, | %17
w: da. _||2.Tro-|ba sa fem- na al pe del|foc, Tro-|ba sa fem- na al pe del|
w: ||||||
[M:6/8] F,6 || z2 E, F,G,A,- | A,B,(A,- A, G,2) | F,6 | E,3 E,3 |[M:9/8] E,2 E, E,6 | %23
w: foc,|To- ta des- con|_ so- la _ _|da.|A E|I O U|
w: ||||||
[M:6/8] z2 E, F,G,A,- | A, E,2 F,3 | !fermata!A,6 |: A,, |[M:9/8] A,,2 E, (E,D,)C, D,2 E, | %28
w: To- ta des- con|_ so- la-|da.|3.Se|sias ma- lau _ ta di- ga-|
w: |||4.Amb|u- na ra- ba amb un cau-|
[M:6/8] E,3- E,2 A,, |[M:9/8] A,,2 E, E,D,C, D,2 E, |[M:6/8] F,6 || G,E,G, F,2 E, | %32
w: bo, _ Se|sias ma- la _ ta di- ga-|bo:|te fa- rai un po-|
w: let, _ Amb|u- na ra- ba amb un cau-|let,|u- na lau- se- ta|
[M:9/8] G,3 F,6 ||[M:6/8] E,3 F,3 |[M:9/8] G,2 F, E,6 ||[M:6/8] E,6- | E,6- | E,3- E,2 :: z | %39
w: ta- tge!|A E|I O U|A|_|||
w: ma- gra!|||||||
[M:9/8] z9 |[M:3/8] z2 F, |[M:9/8] E,2 F, G,2 G, G,3 | F,6 z2 :| z |[M:7/8] z7 | %45
w: |5.Al|pus fond de la ca-|va.|||
w: |6.Lo|cap jos la ca- ne-|la.|||
[M:9/8] z2 E, D,2 E, F,2 F, |[M:6/8] (E,3 D,E,F,) | E,3- E,2 z |[M:7/8] z7 | z D,E, F,F, E,2- | %50
w: 7.Pren- dran d'ai- ga sen-|ha _ _ _|da _||8.Qual es mor- ta ai-|
w: |||||
[M:9/8] E,2 E, E,2 E, E,2 E, |[M:6/8] (E,6 | !fermata!F,6) |[K:C][M:2/4] z D, D,A, | A,2 G,F, | %55
w: ci, a- quo's la pau- ra|Joa-||9.Se n'es a-|na- da- al|
w: |||||
 G,2 A,A,- | A,4- | A,4 | z D, D,A, | A,2 G,F, | G,2 A,G,- |[M:7/8] G,2- G,3- G,2- |[M:2/4] G,4 || %63
w: Pa- ra- dis,|_||se nes a-|na- da al|Pa- ra- dis|_ _ _||
w: ||||||||
[M:8/8] A,3 A,3 A,A, |[M:6/8] !fermata!G,6 || z3 D,E,F, | G,2 G, (G,2 E,) | !fermata!E,6 |] %68
w: A E I O|U!|Al cèl am-|be sas cra _|bas!|
w: |||||
V:4
 z | A,,6 E,2 C, |[M:6/8] B,,6- |[M:9/8] B,,8- B,,- |[M:6/8] B,,6 | z2 A,, E,2 C, | %6
w: |1.Quand lo bo-|ier|_ _||Plan- ta son|
w: ||||||
[M:9/8] D,2 D, B,,2 (E, E,3) |[M:6/8] A,,3 A,,3 |[M:9/8] D,2 C, B,,6 |[M:6/8] z6 | %10
w: a- gul- ha- da. _|A E|I O U||
w: ||||
 C,B,,A,, D,E,E, | A,,3- A,,2 | A,, |[M:9/8] A,,2 E, E,D,C, D,2 E, | E,6- E,2 A,, | %15
w: Plan- ta son a- gul- ha-|da _|2.Tro-|ba sa fem- na al pe del|foc, _ Tro-|
w: |||||
 A,,2 E, E,D,C, D,2 E, | E,8- E,- |[M:6/8] E,6 || A,,B,,C, D,2 E, | (C,>D,C,) B,,3- | B,,6 | %21
w: ba sa fem- na al pe del|foc, _|_|To- ta des- con- so-|la _ _ da|_|
w: ||||||
 A,,3 G,,3 |[M:9/8] A,,2 A,, B,,6 |[M:6/8] A,,B,,C, D,2 E, | C,3 (B,,C,B,,) | !fermata!A,,6 |: %26
w: A E|I O U|To- ta des- con- so-|la- a _ _|da.|
w: |||||
 A,, |[M:9/8] A,,2 E, (E,D,)C, G,,2 G,, |[M:6/8] A,,3- A,,2 A,, |[M:9/8] A,,2 E, E,D,C, G,,2 G,, | %30
w: 3.Se|sias ma- lau _ ta di- ga-|bo, _ Se|sias ma- la _ ta di- ga-|
w: 4.Amb|u- na ra- ba amb un cau-|let, _ Amb|u- na ra- ba amb un cau-|
[M:6/8] D,6 || C,B,,A,, B,,2 C, |[M:9/8] E,3 D,6 ||[M:6/8] C,3 B,,3 |[M:9/8] A,,2 A,, G,,6 || %35
w: bo:|te fa- rai un po-|ta- tge!|A E|I O U|
w: let,|u- na lau- se- ta|ma- gra!|||
[M:6/8] A,,B,,C, D,2 E, | (C,3 B,,C,B,,) | A,,3- A,,2 :: z |[M:9/8] z9 |[M:3/8] z2 B,, | %41
w: Te fa- rai un po-|ta _ _ _|tge. _|||5.Al|
w: U- na lau- se- ta|ma _ _ _|gra. _|||6.Lo|
[M:9/8] C,2 D, C,2 G,, A,,3 | B,,6 z2 :| C, |[M:7/8] C,E,(E, D,)C, D,E, |[M:9/8] A,,6- A,,3- | %46
w: pus fond de la ca-|va.|7.Los|pe- le- grins _ que pa- sa-|ran _|
w: cap jos la ca- ne-|la.||||
[M:6/8] A,,6- | A,,3- A,,2 z |[M:7/8] C,E,E, D,C, D,E, | A,,3- A,,4- | %50
w: _||8.E di- ran qual es mor- ta.i-|ci _|
w: ||||
[M:9/8] A,,2 C, B,,2 C, D,2 D, |[M:6/8] (C,3 B,,C,B,, | .!fermata!A,,6) |[K:C][M:2/4] z4 | z4 | %55
w: _ a- quo's la pau- ra|Joa _ _ _|na!|||
w: |||||
 z3 A,, | A,,E, E,2 | D,C, D,2 | E, F,3- | F,4 | z2 z A,, |[M:7/8] A,,E,D, C,B,, A,,B,, | %62
w: 9.Se|n'es a- na-|da- al Pa-|ra- dis,|_|9.Se|n'es a- na- da- al Pa- ra-|
w: |||||||
[M:2/4] C,4 ||[M:8/8] (E,F,G,)(F,G,)F,E,A,, |[M:6/8] .!fermata!C,6 || A,,B,,C, D,2 D, | %66
w: dis.|A _ _ E _ _ I O|U!|Al cèl am- be sas|
w: ||||
 (C,3 B,,C,B,,) | !fermata!A,,6 |] %68
w: cra _ _ _|bas!|
w: ||

